icon/ii/book.svg

<svg xmlns="http://www.w3.org/2000/svg" viewBox="0 0 8 8" height="1em" width="1em">
  <path d="M1 0c-.07 0-.13.01-.19.03-.39.08-.7.39-.78.78-.03.06-.03.12-.03.19v5.5c0 .83.67 1.5 1.5 1.5h5.5v-1h-5.5c-.28 0-.5-.22-.5-.5s.22-.5.5-.5h5.5v-5.5c0-.28-.22-.5-.5-.5h-.5v3l-1-1-1 1v-3h-3z"/>
</svg>

<svg xmlns="http://www.w3.org/2000/svg" width="8" height="8"><path d="M1 0C.93 0 .87.01.81.03.42.11.11.42.03.81 0 .87 0 .93 0 1v5.5C0 7.33.67 8 1.5 8H7V7H1.5c-.28 0-.5-.22-.5-.5s.22-.5.5-.5H7V.5c0-.28-.22-.5-.5-.5H6v3L5 2 4 3V0H1z"/></svg>
